X:160
T:Sl\"angpolska efter Blomgren
R:sl\"angpolska
H:efter Johan Christian Blomgren, H\"asslunda
A:Sk{\aa}ne
Z:id:hn-sp-160
M:3/4
L:1/16
K:Dm
d2fd e2ge f2af | g2bg a2f2 e2d2 | ^cdef edc=B A2c2 |
d2fd e2ge f2af | g2bg a2f2 e2d2 |1 ^cdec d6 A2 :|2 ^cdec d8 ||
|: b2a2 g2f2 e2f2 | d2f2 efge f4 | b3a g2f2 e2f2 | d2f2 efge f4 | 
abag f2e2 d2ef | gafg efde ^c2A2 | defd efge fgaf |
gabg a2f2 e2d2 |1 ^cdec d8 :|2 ^cdec d6 A2 ||

